svgs/sharp-light/cart-flatbed-suitcase.svg

<svg xmlns="http://www.w3.org/2000/svg" viewBox="0 0 640 512"><!--! Font Awesome Pro 6.6.0 by @fontawesome - https://fontawesome.com License - https://fontawesome.com/license (Commercial License) Copyright 2024 Fonticons, Inc. --><path d="M0 0L16 0l96 0 16 0 0 16 0 368 96 0 288 0 112 0 16 0 0 32-16 0-56.6 0c5.4 9.4 8.6 20.3 8.6 32c0 35.3-28.7 64-64 64s-64-28.7-64-64c0-11.7 3.1-22.6 8.6-32l-177.1 0c5.4 9.4 8.6 20.3 8.6 32c0 35.3-28.7 64-64 64s-64-28.7-64-64c0-11.7 3.1-22.6 8.6-32L112 416l-16 0 0-16L96 32 16 32 0 32 0 0zM512 416a32 32 0 1 0 0 64 32 32 0 1 0 0-64zM192 448a32 32 0 1 0 64 0 32 32 0 1 0 -64 0zM288 0l16 0L464 0l16 0 0 16 0 64 64 0 32 0 0 32 0 176 0 32-32 0-320 0-32 0 0-32 0-176 0-32 32 0 64 0 0-64 0-16zm32 80l128 0 0-48L320 32l0 48zm-48 32l-48 0 0 176 48 0 0-176zm32 176l160 0 0-176-160 0 0 176zm192 0l48 0 0-176-48 0 0 176z"/></svg>

<svg xmlns="http://www.w3.org/2000/svg" viewBox="0 0 640 512"><!--! Font Awesome Pro 6.4.2 by @fontawesome - https://fontawesome.com License - https://fontawesome.com/license (Commercial License) Copyright 2023 Fonticons, Inc. --><path d="M0 0H16h96 16V16 384h96H512 624h16v32H624 567.4c5.4 9.4 8.6 20.3 8.6 32c0 35.3-28.7 64-64 64s-64-28.7-64-64c0-11.7 3.1-22.6 8.6-32H279.4c5.4 9.4 8.6 20.3 8.6 32c0 35.3-28.7 64-64 64s-64-28.7-64-64c0-11.7 3.1-22.6 8.6-32H112 96V400 32H16 0V0zM512 416a32 32 0 1 0 0 64 32 32 0 1 0 0-64zM192 448a32 32 0 1 0 64 0 32 32 0 1 0 -64 0zM288 0h16H464h16V16 80h64 32v32V288v32H544 224 192V288 112 80h32 64V16 0zm32 80H448V32H320V80zm-48 32H224V288h48V112zm32 176H464V112H304V288zm192 0h48V112H496V288z"/></svg>
